!! 00000] TT[00
!! NN
!!!OTL: Kang huo diao
!!!ARE: Asia, China,ÿShandong, Linqing
!! Ethnic Group: Han
!! III, 359
!!!SCT: C0306
!!!YEM: Copyright 1995, estate of Helmut Schaffrath.
**kern
*ICvox
*Ivox
*M2/4
*k[f#c#]
*D:
{4a
[4dd
=1
8dd]
8a
8b
8f#
=2
4a
8f#
8e
=3
2d}
=4
{4dd
8b
8a
=5
8e
8d
8e
8f#
=6
4a
8a
8b
=7
4f#
4r}
=8
{4dd
8b
8a
=9
8b
16a
16b
4dd
=10
4ee
8b
8dd
=11
8b
8f#
8a
8dd
=12
8b
8a
8a
8f#
=13
8e
8f#
8e
8d
=14
2d}
=15
{4f#
8a
8f#
=16
8e
8d
8e
8f#
=17
2a}
=18
{4B
8B
8d
=19
4a
8f#
8e
=20
4d
8d
8e
=21
2d}
=22
{4f#
8d
8e
=23
8f#
8f#
8a
8f#
=24
4e
8e
8f#
=25
8c#
8B
4A
=26
4f#
8B
8d
=27
4e
8c#
8B
=28
2A}
==
!!!AGN: Xiaodiao. Changgong shenghuo
!! Das Lied muss sehr akzentuiert intoniert werden.
!!!ONB: ESAC (Essen Associative Code) Database: CHINA
!!!AMT: simple duple
!!!AIN: vox
!!!EED: Helmut Schaffrath
!!!EEV: 1.0
*-
!!!ONB: Tied note syntax fixed by Craig Sapp, 2004/05/03/
